assets/business-color/BusinessColor9.svg

<svg xmlns="http://www.w3.org/2000/svg" id="Layer_1" x="0" y="0" version="1.1" viewBox="0 0 256 256" xml:space="preserve"><style>.st0{fill:#9feaff}.st1{fill:#fff}.st2{fill:#48386a}</style><path d="M165.4 5.3h49.9v15.6H48.7V5.3h101z" class="st0"/><path d="M177.7 250.7h13.7l-21.7-49.5H156z" class="st1"/><path d="M191.4 251.7h-13.8c-.4 0-.8-.2-.9-.6L155 201.6c-.1-.3-.1-.7.1-.9s.5-.5.8-.5h13.8c.4 0 .8.2.9.6l21.7 49.5c.1.3.1.7-.1.9s-.4.5-.8.5zm-13.1-2h11.6l-20.8-47.5h-11.6l20.8 47.5z" class="st2"/><path d="M188.1 201.2H46.5v-15.6h166.6v15.6h-17.6z" class="st1"/><path d="M192.1 201.2H50.5v-15.6h166.6v15.6h-17.6z" class="st0"/><path d="M5.9 20.9h244.3v164.6H5.9z" class="st1"/><path d="M250.1 186.6H5.9c-.6 0-1-.4-1-1V20.9c0-.6.4-1 1-1h244.3c.6 0 1 .4 1 1v164.6c-.1.6-.5 1.1-1.1 1.1zm-243.2-2h242.3V21.9H6.9v162.7z" class="st2"/><path d="M244.7 180.6H75.9c-.3 0-.5-.2-.5-.5s.2-.5.5-.5h168.3V26.9H11.8v152.8h55.6c.3 0 .5.2.5.5s-.2.5-.5.5H11.3c-.3 0-.5-.2-.5-.5V26.4c0-.3.2-.5.5-.5h233.4c.3 0 .5.2.5.5v153.8c0 .2-.2.4-.5.4z" class="st2"/><path d="M19.7 113.7h64.9v12.6H19.7z" class="st0" transform="rotate(90 52.118 119.985)"/><path d="M35.7 92.6h107v12.6h-107z" class="st0" transform="rotate(90 89.168 98.906)"/><path d="M119.9 77.8V66.1h12.6v86.3h-12.6V90.7z" class="st0"/><path d="M115 97.8h96.6v12.6H115z" class="st0" transform="rotate(90 163.27 104.113)"/><path d="M194 125.4V68.9h12.6v83.5H194v-21z" class="st0"/><path d="M211.3 21.9H44.7c-.6 0-1-.4-1-1V5.3c0-.6.4-1 1-1h101.1c.6 0 1 .4 1 1s-.4 1-1 1H45.7v13.6h164.6V6.3h-48.9c-.6 0-1-.4-1-1s.4-1 1-1h49.9c.6 0 1 .4 1 1v15.6c0 .6-.4 1-1 1z" class="st2"/><path d="M157.1 6.3h-3c-.6 0-1-.4-1-1s.4-1 1-1h3c.6 0 1 .4 1 1s-.4 1-1 1zM213.1 202.2h-17.6c-.6 0-1-.4-1-1s.4-1 1-1h16.6v-13.6H47.5v13.6h140.6c.6 0 1 .4 1 1s-.4 1-1 1H46.5c-.6 0-1-.4-1-1v-15.6c0-.6.4-1 1-1h166.6c.6 0 1 .4 1 1v15.6c0 .5-.4 1-1 1zM211.3 13.6H44.7c-.3 0-.5-.2-.5-.5s.2-.5.5-.5h166.6c.3 0 .5.2.5.5s-.2.5-.5.5z" class="st2"/><path d="M213.1 193.9H46.5c-.3 0-.5-.2-.5-.5s.2-.5.5-.5h166.6c.3 0 .5.2.5.5s-.2.5-.5.5z" class="st2"/><path d="M87.3 238.5l-5.4 12.2H68.2l21.7-49.5h13.8l-13.2 30z" class="st1"/><path d="M81.9 251.7H68.2c-.3 0-.7-.2-.8-.5s-.2-.6-.1-.9L89 200.8c.2-.4.5-.6.9-.6h13.7c.3 0 .7.2.8.5s.2.6.1.9l-13.2 30.1c-.2.5-.8.7-1.3.5-.5-.2-.7-.8-.5-1.3l12.6-28.7H90.6l-20.8 47.5h11.6l5.1-11.5c.2-.5.8-.7 1.3-.5.5.2.7.8.5 1.3L83 251.1c-.3.3-.7.6-1.1.6z" class="st2"/><path d="M75.1 251.2h-.2c-.3-.1-.4-.4-.3-.7L96.3 201c.1-.3.4-.4.7-.3.3.1.4.4.3.7l-21.7 49.5c-.1.2-.3.3-.5.3zM184.5 251.2c-.2 0-.4-.1-.5-.3l-21.7-49.5c-.1-.3 0-.5.3-.7.3-.1.5 0 .7.3l21.7 49.5c.1.3 0 .5-.3.7h-.2zM25.4 170.3c-.6 0-1-.4-1-1V42.4c0-.6.4-1 1-1s1 .4 1 1v126.9c0 .5-.4 1-1 1z" class="st2"/><path d="M31.8 54.2l-1.9.7-4.5-12.3-4.5 12.3-1.9-.7 6.4-17.5zM228 170.3H25.4c-.6 0-1-.4-1-1s.4-1 1-1H228c.6 0 1 .4 1 1s-.4 1-1 1z" class="st2"/><path d="M216.2 175.6l-.7-1.8 12.3-4.5-12.3-4.5.7-1.9 17.5 6.4zM59.2 158.8H37.1c-.6 0-1-.4-1-1V82.1c0-.6.4-1 1-1h22.1c.6 0 1 .4 1 1v27.7c0 .6-.4 1-1 1s-1-.4-1-1V83.1H38.1v73.7h20.1V118c0-.6.4-1 1-1s1 .4 1 1v39.9c0 .5-.5.9-1 .9z" class="st2"/><path d="M54.4 152.9H41.8c-.3 0-.5-.2-.5-.5V87.6c0-.3.2-.5.5-.5h12.6c.3 0 .5.2.5.5v64.9c0 .2-.2.4-.5.4zm-12.1-1h11.6V88.1H42.3v63.8zM96.2 158.8H74.1c-.6 0-1-.4-1-1V36.7c0-.6.4-1 1-1h22.1c.6 0 1 .4 1 1v121.1c0 .6-.4 1-1 1zm-21.1-2h20.1V37.7H75.1v119.1z" class="st2"/><path d="M91.5 152.9H78.9c-.3 0-.5-.2-.5-.5v-107c0-.3.2-.5.5-.5h12.6c.3 0 .5.2.5.5v107c0 .3-.2.5-.5.5zm-12.1-1H91v-106H79.4v106zM133.3 158.8h-22.1c-.6 0-1-.4-1-1V59.1c0-.6.4-1 1-1h22.1c.6 0 1 .4 1 1v98.8c0 .5-.5.9-1 .9zm-21.1-2h20.1V60.1h-20.1v96.7z" class="st2"/><path d="M115.9 87.9c-.3 0-.5-.2-.5-.5v-3.3c0-.3.2-.5.5-.5s.5.2.5.5v3.3c0 .3-.2.5-.5.5z" class="st2"/><g><path d="M128.5 152.9h-12.6c-.3 0-.5-.2-.5-.5V90.7c0-.3.2-.5.5-.5s.5.2.5.5v61.2H128V66.6h-11.6v11.2c0 .3-.2.5-.5.5s-.5-.2-.5-.5V66.1c0-.3.2-.5.5-.5h12.6c.3 0 .5.2.5.5v86.3c0 .3-.2.5-.5.5z" class="st2"/></g><g><path d="M170.3 158.8h-22.1c-.6 0-1-.4-1-1V47.9c0-.6.4-1 1-1h22.1c.6 0 1 .4 1 1v109.9c0 .6-.4 1-1 1zm-21.1-2h20.1V48.9h-20.1v107.9z" class="st2"/></g><g><path d="M165.6 152.9H153c-.3 0-.5-.2-.5-.5V55.8c0-.3.2-.5.5-.5h12.6c.3 0 .5.2.5.5v96.6c0 .3-.2.5-.5.5zm-12.1-1h11.6V56.3h-11.6v95.6z" class="st2"/></g><g><path d="M207.4 158.8h-22.1c-.6 0-1-.4-1-1V62c0-.6.4-1 1-1h22.1c.6 0 1 .4 1 1v95.8c0 .6-.5 1-1 1zm-21.1-2h20.1V63h-20.1v93.8z" class="st2"/></g><g><path d="M202.6 152.9H190c-.3 0-.5-.2-.5-.5v-21c0-.3.2-.5.5-.5s.5.2.5.5v20.5h11.6V69.4h-11.6v56c0 .3-.2.5-.5.5s-.5-.2-.5-.5V68.9c0-.3.2-.5.5-.5h12.6c.3 0 .5.2.5.5v83.5c0 .3-.2.5-.5.5z" class="st2"/></g></svg>

<svg xmlns="http://www.w3.org/2000/svg" id="Layer_1" x="0" y="0" enable-background="new 0 0 256 256" version="1.1" viewBox="0 0 256 256" xml:space="preserve"><style>.st0{fill:#9FEAFF;}
	.st1{fill:#FFFFFF;}
	.st2{fill:#48386A;}</style><path d="M165.4 5.3 215.3 5.3 215.3 20.9 48.7 20.9 48.7 5.3 149.7 5.3z" class="st0"/><path d="M177.7 250.7 191.4 250.7 169.7 201.2 156 201.2z" class="st1"/><path d="M191.4 251.7h-13.8c-.4 0-.8-.2-.9-.6L155 201.6c-.1-.3-.1-.7.1-.9s.5-.5.8-.5h13.8c.4 0 .8.2.9.6l21.7 49.5c.1.3.1.7-.1.9s-.4.5-.8.5zm-13.1-2h11.6l-20.8-47.5h-11.6l20.8 47.5z" class="st2"/><path d="M188.1 201.2 46.5 201.2 46.5 185.6 213.1 185.6 213.1 201.2 195.5 201.2z" class="st1"/><path d="M192.1 201.2 50.5 201.2 50.5 185.6 217.1 185.6 217.1 201.2 199.5 201.2z" class="st0"/><path d="M5.9 20.9H250.20000000000002V185.5H5.9z" class="st1"/><path d="M250.1 186.6H5.9c-.6 0-1-.4-1-1V20.9c0-.6.4-1 1-1h244.3c.6 0 1 .4 1 1v164.6c-.1.6-.5 1.1-1.1 1.1zm-243.2-2h242.3V21.9H6.9v162.7z" class="st2"/><path d="M244.7 180.6H75.9c-.3 0-.5-.2-.5-.5s.2-.5.5-.5h168.3V26.9H11.8v152.8h55.6c.3 0 .5.2.5.5s-.2.5-.5.5H11.3c-.3 0-.5-.2-.5-.5V26.4c0-.3.2-.5.5-.5h233.4c.3 0 .5.2.5.5v153.8c0 .2-.2.4-.5.4z" class="st2"/><path d="M19.7 113.7H84.60000000000001V126.3H19.7z" class="st0" transform="rotate(90 52.118 119.985)"/><path d="M35.7 92.6H142.7V105.19999999999999H35.7z" class="st0" transform="rotate(90 89.168 98.906)"/><path d="M119.9 77.8 119.9 66.1 132.5 66.1 132.5 152.4 119.9 152.4 119.9 90.7z" class="st0"/><path d="M115 97.8H211.6V110.39999999999999H115z" class="st0" transform="rotate(90 163.27 104.113)"/><path d="M194 125.4 194 68.9 206.6 68.9 206.6 152.4 194 152.4 194 131.4z" class="st0"/><path d="M211.3 21.9H44.7c-.6 0-1-.4-1-1V5.3c0-.6.4-1 1-1h101.1c.6 0 1 .4 1 1s-.4 1-1 1H45.7v13.6h164.6V6.3h-48.9c-.6 0-1-.4-1-1s.4-1 1-1h49.9c.6 0 1 .4 1 1v15.6c0 .6-.4 1-1 1z" class="st2"/><path d="M157.1 6.3h-3c-.6 0-1-.4-1-1s.4-1 1-1h3c.6 0 1 .4 1 1s-.4 1-1 1zM213.1 202.2h-17.6c-.6 0-1-.4-1-1s.4-1 1-1h16.6v-13.6H47.5v13.6h140.6c.6 0 1 .4 1 1s-.4 1-1 1H46.5c-.6 0-1-.4-1-1v-15.6c0-.6.4-1 1-1h166.6c.6 0 1 .4 1 1v15.6c0 .5-.4 1-1 1zM211.3 13.6H44.7c-.3 0-.5-.2-.5-.5s.2-.5.5-.5h166.6c.3 0 .5.2.5.5s-.2.5-.5.5z" class="st2"/><path d="M213.1 193.9H46.5c-.3 0-.5-.2-.5-.5s.2-.5.5-.5h166.6c.3 0 .5.2.5.5s-.2.5-.5.5z" class="st2"/><path d="M87.3 238.5 81.9 250.7 68.2 250.7 89.9 201.2 103.7 201.2 90.5 231.2z" class="st1"/><path d="M81.9 251.7H68.2c-.3 0-.7-.2-.8-.5s-.2-.6-.1-.9L89 200.8c.2-.4.5-.6.9-.6h13.7c.3 0 .7.2.8.5s.2.6.1.9l-13.2 30.1c-.2.5-.8.7-1.3.5-.5-.2-.7-.8-.5-1.3l12.6-28.7H90.6l-20.8 47.5h11.6l5.1-11.5c.2-.5.8-.7 1.3-.5.5.2.7.8.5 1.3L83 251.1c-.3.3-.7.6-1.1.6z" class="st2"/><path d="M75.1 251.2h-.2c-.3-.1-.4-.4-.3-.7L96.3 201c.1-.3.4-.4.7-.3.3.1.4.4.3.7l-21.7 49.5c-.1.2-.3.3-.5.3zM184.5 251.2c-.2 0-.4-.1-.5-.3l-21.7-49.5c-.1-.3 0-.5.3-.7.3-.1.5 0 .7.3l21.7 49.5c.1.3 0 .5-.3.7h-.2zM25.4 170.3c-.6 0-1-.4-1-1V42.4c0-.6.4-1 1-1s1 .4 1 1v126.9c0 .5-.4 1-1 1z" class="st2"/><path d="M31.8 54.2 29.9 54.9 25.4 42.6 20.9 54.9 19 54.2 25.4 36.7z" class="st2"/><path d="M228 170.3H25.4c-.6 0-1-.4-1-1s.4-1 1-1H228c.6 0 1 .4 1 1s-.4 1-1 1z" class="st2"/><path d="M216.2 175.6 215.5 173.8 227.8 169.3 215.5 164.8 216.2 162.9 233.7 169.3z" class="st2"/><path d="M59.2 158.8H37.1c-.6 0-1-.4-1-1V82.1c0-.6.4-1 1-1h22.1c.6 0 1 .4 1 1v27.7c0 .6-.4 1-1 1s-1-.4-1-1V83.1H38.1v73.7h20.1V118c0-.6.4-1 1-1s1 .4 1 1v39.9c0 .5-.5.9-1 .9z" class="st2"/><path d="M54.4 152.9H41.8c-.3 0-.5-.2-.5-.5V87.6c0-.3.2-.5.5-.5h12.6c.3 0 .5.2.5.5v64.9c0 .2-.2.4-.5.4zm-12.1-1h11.6V88.1H42.3v63.8zM96.2 158.8H74.1c-.6 0-1-.4-1-1V36.7c0-.6.4-1 1-1h22.1c.6 0 1 .4 1 1v121.1c0 .6-.4 1-1 1zm-21.1-2h20.1V37.7H75.1v119.1z" class="st2"/><path d="M91.5 152.9H78.9c-.3 0-.5-.2-.5-.5v-107c0-.3.2-.5.5-.5h12.6c.3 0 .5.2.5.5v107c0 .3-.2.5-.5.5zm-12.1-1H91v-106H79.4v106zM133.3 158.8h-22.1c-.6 0-1-.4-1-1V59.1c0-.6.4-1 1-1h22.1c.6 0 1 .4 1 1v98.8c0 .5-.5.9-1 .9zm-21.1-2h20.1V60.1h-20.1v96.7z" class="st2"/><path d="M115.9 87.9c-.3 0-.5-.2-.5-.5v-3.3c0-.3.2-.5.5-.5s.5.2.5.5v3.3c0 .3-.2.5-.5.5z" class="st2"/><g><path d="M128.5 152.9h-12.6c-.3 0-.5-.2-.5-.5V90.7c0-.3.2-.5.5-.5s.5.2.5.5v61.2H128V66.6h-11.6v11.2c0 .3-.2.5-.5.5s-.5-.2-.5-.5V66.1c0-.3.2-.5.5-.5h12.6c.3 0 .5.2.5.5v86.3c0 .3-.2.5-.5.5z" class="st2"/></g><g><path d="M170.3 158.8h-22.1c-.6 0-1-.4-1-1V47.9c0-.6.4-1 1-1h22.1c.6 0 1 .4 1 1v109.9c0 .6-.4 1-1 1zm-21.1-2h20.1V48.9h-20.1v107.9z" class="st2"/></g><g><path d="M165.6 152.9H153c-.3 0-.5-.2-.5-.5V55.8c0-.3.2-.5.5-.5h12.6c.3 0 .5.2.5.5v96.6c0 .3-.2.5-.5.5zm-12.1-1h11.6V56.3h-11.6v95.6z" class="st2"/></g><g><path d="M207.4 158.8h-22.1c-.6 0-1-.4-1-1V62c0-.6.4-1 1-1h22.1c.6 0 1 .4 1 1v95.8c0 .6-.5 1-1 1zm-21.1-2h20.1V63h-20.1v93.8z" class="st2"/></g><g><path d="M202.6 152.9H190c-.3 0-.5-.2-.5-.5v-21c0-.3.2-.5.5-.5s.5.2.5.5v20.5h11.6V69.4h-11.6v56c0 .3-.2.5-.5.5s-.5-.2-.5-.5V68.9c0-.3.2-.5.5-.5h12.6c.3 0 .5.2.5.5v83.5c0 .3-.2.5-.5.5z" class="st2"/></g></svg>
